X: 3667
T: Billy Boy
R: jig
M: 6/8
K: Gmajor
B2c|d2d c2B|A3 B2A|G3 A2F|G3 B2c|
d2d ^c2d|e2d ^c2d|A6-|A3 d2d||
e2d e2f|g3 f2e|d2d g2B|A3 d2B|
G2G BAG|d2d e2g|B2G A2F|G3||

